X:1
T:Greenwood (Sweetser), SM
T:Greenwood (Sweetser), SM
T:Joseph Emerson Sweetser, 1849
T:Public Domain Courtesy of the Cyber Hymnal™
C:Joseph Emerson Sweetser, 1849
Z:Public Domain
Z:Courtesy of the Cyber Hymnal™
%%score ( 1 2 ) ( 3 4 )
L:1/8
M:3/4
K:G
V:1 treble 
V:2 treble 
V:3 bass 
V:4 bass 
V:1
 [DB]2 [CA]2 [B,G]2 | [B,D]4 [CE]2 | [B,D]6 | [CF]2 [CE]2 [CF]2 | [B,G]4 [DB]2 | [Fd]6 | %6
 [DA]2 [DG]2 [DA]2 | [DB]4 [^DB]2 | [EB]4 [=FB]2 | [Ec]4 [Ge]2 | (e2 d2) [DB]2 | [DB]4 [DA]2 | %12
 [DG]6 |] %13
V:2
 x6 | x6 | x6 | x6 | x6 | x6 | x6 | x6 | x6 | x6 | G4 x2 | x6 | x6 |] %13
V:3
 [G,,G,]2 [G,,G,]2 [G,,G,]2 | [G,,G,]4 [G,,G,]2 | [G,,G,]6 | [D,A,]2 [D,G,]2 [D,A,]2 | G,4 G,2 | %5
 [D,A,]6 | [D,C]2 [D,B,]2 [D,F,]2 | G,4 [F,A,]2 | [E,G,]4 [D,G,]2 | [C,G,]4 [^C,A,]2 | %10
 [D,B,]4 [D,G,]2 | (G,2 D2) [D,C]2 | [G,,B,]6 |] %13
V:4
 x6 | x6 | x6 | x6 | G,4 G,2 | x6 | x6 | G,4 x2 | x6 | x6 | x6 | D,4 x2 | x6 |] %13

